image/android.svg

<?xml version="1.0" encoding="UTF-8"?>
<svg width="40px" height="40px" viewBox="0 0 40 40" version="1.1" xmlns="http://www.w3.org/2000/svg" xmlns:xlink="http://www.w3.org/1999/xlink">
    <title>矩形备份 3</title>
    <g id="Flat-Web" stroke="none" stroke-width="1" fill="none" fill-rule="evenodd">
        <g id="landingpage" transform="translate(-891.000000, -1126.000000)" fill="#5CC348" fill-rule="nonzero">
            <g id="编组-20" transform="translate(0.000000, 964.000000)">
                <g id="编组-17" transform="translate(832.000000, 124.000000)">
                    <g id="编组-16" transform="translate(59.000000, 38.000000)">
                        <path d="M5.41755634,12.5321513 C4.08187214,12.5321513 3,13.6385457 3,15.0042795 L3,24.6624162 C3,26.0286248 4.0829251,27.1352092 5.41755634,27.1352092 C6.75218757,27.1352092 7.83511267,26.0288148 7.83511267,24.6624162 L7.83511267,15.0042795 C7.83511267,13.6395428 6.7536713,12.5321513 5.41755634,12.5321513 Z M34.5824437,12.5321513 C33.2467595,12.5321513 32.1642173,13.6385457 32.1642173,15.0042795 L32.1642173,24.6624162 C32.1642173,26.0286248 33.2478603,27.1352092 34.5824437,27.1352092 C35.917027,27.1352092 37,26.0288148 37,24.6624162 L37,15.0042795 C37,13.6395428 35.9170749,12.5321513 34.5824437,12.5321513 Z M9.29006892,30.2554959 C9.29006892,31.3039165 10.1338756,32.1528707 11.1752565,32.1528707 L13.3275617,32.1528707 L13.3275617,37.527207 C13.3275617,38.8934157 14.4104868,40 15.7451181,40 C17.0797493,40 18.1633445,38.8936056 18.1633445,37.527207 L18.1633445,32.1528707 L21.9248173,32.1528707 L21.9248173,37.527207 C21.9248173,38.8934157 23.0084603,40 24.3430437,40 C25.6776271,40 26.7606,38.8936056 26.7606,37.527207 L26.7606,32.1528707 L28.9129053,32.1528707 C29.9538076,32.1528707 30.7980928,31.303774 30.7980928,30.2554959 L30.7980928,12.6066484 L9.28547417,12.6066484 L9.28547417,30.2554959 L9.29006892,30.2554959 Z M25.1005552,3.46305965 L27.0872102,0.560281804 C27.2049506,0.38825936 27.1760898,0.161919037 27.0227401,0.0552299858 C26.8678587,-0.0517914298 26.647215,0.0025264493 26.5294745,0.17288707 L24.4646131,3.18995087 C23.1051415,2.65123526 21.5936603,2.34968557 20.0007179,2.34968557 C18.4077756,2.34968557 16.8961986,2.65042809 15.5368228,3.18995087 L13.4719613,0.17288707 C13.3542209,0.000864626079 13.1330507,-0.0513641038 12.9786958,0.0552299858 C12.8238144,0.162346363 12.7955759,0.387784553 12.9142257,0.560281804 L14.9008807,3.46305965 C11.7415594,4.94355422 9.52411399,7.75379225 9.24297274,11.034991 L30.7555914,11.034991 C30.4718177,7.75535911 28.2569569,4.9423672 25.0976835,3.46305965 L25.1005552,3.46305965 Z M15.4612008,8.03729929 C14.8043431,8.03729929 14.2715914,7.50110016 14.2715914,6.83950459 C14.2715914,6.17857376 14.8040559,5.64170989 15.4612008,5.64170989 C16.1183458,5.64170989 16.6508103,6.17862124 16.6508103,6.83950459 C16.6508103,7.50214473 16.1183458,8.03729929 15.4612008,8.03729929 Z M24.6848261,8.03729929 C24.0279683,8.03729929 23.4952166,7.50110016 23.4952166,6.83950459 C23.4952166,6.17857376 24.0283512,5.64170989 24.6848261,5.64170989 C25.3424496,5.64170989 25.8744355,6.17862124 25.8744355,6.83950459 C25.8744355,7.50214473 25.341971,8.03729929 24.6848261,8.03729929 Z" id="形状"></path>
                    </g>
                </g>
            </g>
        </g>
    </g>
</svg>

<svg width="40" height="40" xmlns="http://www.w3.org/2000/svg"><path d="M5.418 12.532C4.082 12.532 3 13.64 3 15.004v9.658c0 1.367 1.083 2.473 2.418 2.473 1.334 0 2.417-1.106 2.417-2.473v-9.658c0-1.364-1.081-2.472-2.417-2.472zm29.164 0c-1.335 0-2.418 1.107-2.418 2.472v9.658c0 1.367 1.084 2.473 2.418 2.473 1.335 0 2.418-1.106 2.418-2.473v-9.658c0-1.364-1.083-2.472-2.418-2.472zM9.29 30.255a1.89 1.89 0 0 0 1.885 1.898h2.153v5.374c0 1.366 1.082 2.473 2.417 2.473 1.335 0 2.418-1.106 2.418-2.473v-5.374h3.762v5.374c0 1.366 1.083 2.473 2.418 2.473 1.335 0 2.418-1.106 2.418-2.473v-5.374h2.152c1.04 0 1.885-.85 1.885-1.898V12.607H9.285v17.648h.005zM25.1 3.463 27.088.56c.118-.172.09-.398-.064-.505-.155-.107-.376-.052-.494.118L24.465 3.19A12.113 12.113 0 0 0 20 2.35c-1.593 0-3.105.3-4.464.84L13.472.173c-.118-.172-.339-.224-.493-.118-.155.107-.183.333-.065.505l1.987 2.903c-3.16 1.48-5.377 4.29-5.658 7.572h21.513c-.284-3.28-2.499-6.093-5.658-7.572h.003zm-9.639 4.574c-.657 0-1.19-.536-1.19-1.197s.533-1.198 1.19-1.198c.657 0 1.19.537 1.19 1.198 0 .662-.533 1.197-1.19 1.197zm9.224 0c-.657 0-1.19-.536-1.19-1.197s.533-1.198 1.19-1.198c.657 0 1.19.537 1.19 1.198 0 .662-.533 1.197-1.19 1.197z" fill="#5CC348" fill-rule="nonzero"/></svg>
